svg/printer_pos_off.svg

<svg xmlns="http://www.w3.org/2000/svg" viewBox="0 0 24 24"><path d="m12.2 9-5-5H17v5zm7.8 7.8V12a2 2 0 0 0-2-2h-4.8zm2.11 4.66-1.27 1.27L17.11 19H4v-7a2 2 0 0 1 2-2h2.11l-7-7 1.28-1.27zM10 12H6v2h4z"/></svg>

<svg xmlns="http://www.w3.org/2000/svg" id="mdi-printer-pos-off" viewBox="0 0 24 24"><path d="M12.2 9L7.2 4H17V9H12.2M20 16.8V12C20 10.9 19.11 10 18 10H13.2L20 16.8M22.11 21.46L20.84 22.73L17.11 19H4V12C4 10.9 4.89 10 6 10H8.11L1.11 3L2.39 1.73L22.11 21.46M10 12H6V14H10V12Z" /></svg>
